X: 569
T:Lad O'Beirne's with breath phrasing
N:Posted to the woodenflute mailing list, August 2002
M:4/4
L:1/8
K:G
DG~G2 DGBG | AcBG AGEG | DG~GF Gz Bd | egdg edge |
dB~B2 AGEG|cE~E2 GEDz | DEGA BABc | dBAc BGGE ||
DG~G2 DGBG | Az BG AGEG | DG~G2 DGBd | egdg ez ge |
dB~B2 AGEG|cE~E2 GEDB | DEGA Bz Bc | dBAc BGGA||
|Bdd^c dz Bd | egdg edge | dB~B2 AGEG | cE~E2 GEDz|
Bdd^c d2ef | g{a}gfa gedB | DEGA Bz Bc | dBAc BG~G2||
Bdd^c dz Bd | egdg ez ge | dB~B2 AGEG | cE~E2 GEDz|
Bdd^c d2ef | g{a}gfa gedz | DEGA BABc | dBAc BG~G2||
DG~G2 Dz BG |


